packages/calcite-ui-icons/icons/3d-16.svg

<?xml version="1.0" encoding="UTF-8"?><svg id="icons" xmlns="http://www.w3.org/2000/svg" viewBox="0 0 16 16"><defs><style>.cls-1{fill:none;}</style></defs><path d="M8.5,14h-.5V2h.5c4.7666,0,7.45,2.18652,7.45,6s-2.6834,6-7.45,6ZM9,3.00977v9.98047c2.44727-.0918,6-.92676,6-4.99023s-3.55273-4.89844-6-4.99023ZM7,10.58789c0-1.13477-.55762-2.05566-1.47461-2.58789.91699-.53223,1.42461-1.45312,1.42461-2.58789,0-1.88184-1.52031-3.41211-3.45-3.41211C1.49219,2,.07852,3.39746.07852,5.25h1c0-1.28223.98396-2.25,2.42148-2.25,1.40234,0,2.5,1.05957,2.5,2.41211,0,1.44238-1.24609,2.08789-2.48145,2.08789v1c1.23535,0,2.48145.64551,2.48145,2.08789,0,1.35254-1.09766,2.41211-2.5,2.41211-1.43752,0-2.42148-.96777-2.42148-2.25H.07852c0,1.85254,1.41367,3.25,3.42148,3.25,1.92969,0,3.5-1.53027,3.5-3.41211Z"/><rect class="cls-1" width="16" height="16"/></svg>

<svg xmlns="http://www.w3.org/2000/svg" viewBox="0 0 16 16"><path d="M8.5 14H8V2h.5c4.767 0 7.45 2.187 7.45 6s-2.683 6-7.45 6zM9 3.01v9.98c2.447-.092 6-.927 6-4.99s-3.553-4.898-6-4.99zm-2 7.578C7 9.453 6.442 8.532 5.525 8c.917-.532 1.425-1.453 1.425-2.588C6.95 3.53 5.43 2 3.5 2 1.492 2 .079 3.397.079 5.25h1C1.079 3.968 2.062 3 3.5 3 4.902 3 6 4.06 6 5.412 6 6.854 4.754 7.5 3.519 7.5v1C4.754 8.5 6 9.146 6 10.588 6 11.94 4.902 13 3.5 13c-1.438 0-2.421-.968-2.421-2.25h-1C.079 12.603 1.492 14 3.5 14 5.43 14 7 12.47 7 10.588z"/><path fill="none" d="M0 0h16v16H0z"/></svg>
